tipitek/img/manager-icon-5.svg

<svg width="60" height="61" viewBox="0 0 60 61" fill="none" xmlns="http://www.w3.org/2000/svg">
<rect y="0.994019" width="60" height="59.997" rx="13.0472" fill="#E6AA12" fill-opacity="0.1"/>
<g clip-path="url(#clip0_437_1085)">
<path d="M44.8027 17.8327H38.2608V15.6868C38.2608 15.3915 38.0213 15.1522 37.7258 15.1522C37.4302 15.1522 37.1908 15.3915 37.1908 15.6868V17.8327H34.9746C34.679 17.8327 34.4395 18.0721 34.4395 18.3674C34.4395 18.6627 34.679 18.902 34.9746 18.902H37.1908V21.166H36.7892C36.2285 21.166 35.7723 21.6219 35.7723 22.1822V28.4766C35.7723 29.0369 36.2285 29.4927 36.7892 29.4927H37.1908V33.7345C37.1908 34.0298 37.4302 34.2692 37.7258 34.2692C38.0213 34.2692 38.2608 34.0298 38.2608 33.7345V29.4927H38.6624C39.223 29.4927 39.6792 29.0369 39.6792 28.4766V22.1822C39.6792 21.6219 39.223 21.166 38.6624 21.166H38.2608V18.902H44.8027C46.0883 18.902 47.1343 19.9473 47.1343 21.2321V39.5316H12.8611V21.2321C12.8611 19.9474 13.907 18.9021 15.1926 18.9021H24.5714V19.9456H24.1698C23.6091 19.9456 23.153 20.4015 23.153 20.9617V27.2561C23.153 27.8165 23.6092 28.2723 24.1698 28.2723H24.5714V32.9968C24.5714 33.1386 24.6277 33.2746 24.7281 33.3749C24.8284 33.4752 24.9645 33.5315 25.1064 33.5315C25.2483 33.5315 25.3844 33.4752 25.4847 33.3749C25.585 33.2746 25.6414 33.1386 25.6414 32.9968V28.2723H26.043C26.6037 28.2723 27.0598 27.8164 27.0598 27.2561V20.9617C27.0598 20.4014 26.6036 19.9456 26.043 19.9456H25.6414V18.902H27.8576C27.9995 18.902 28.1356 18.8457 28.2359 18.7454C28.3363 18.6452 28.3926 18.5092 28.3926 18.3674C28.3926 18.2256 28.3363 18.0896 28.2359 17.9893C28.1356 17.889 27.9995 17.8327 27.8576 17.8327H25.6414V17.5686C25.6414 17.4268 25.585 17.2908 25.4847 17.1906C25.3844 17.0903 25.2483 17.034 25.1064 17.034C24.9645 17.034 24.8284 17.0903 24.7281 17.1906C24.6277 17.2908 24.5714 17.4268 24.5714 17.5686V17.8327H15.1926C13.317 17.8327 11.791 19.3576 11.791 21.2321V40.0663C11.791 41.9407 13.317 43.4656 15.1926 43.4656H23.337V46.1842L21.6126 48.1831H20.9281C20.7862 48.1831 20.6502 48.2394 20.5498 48.3397C20.4495 48.44 20.3931 48.576 20.3931 48.7178C20.3931 48.8596 20.4495 48.9956 20.5498 49.0958C20.6502 49.1961 20.7862 49.2524 20.9281 49.2524H39.0178C39.3134 49.2524 39.5529 49.0131 39.5529 48.7178C39.5529 48.4225 39.3134 48.1831 39.0178 48.1831H38.3827L36.6582 46.1842V43.4656H44.8027C46.6784 43.4656 48.2043 41.9407 48.2043 40.0663V21.2321C48.2043 19.3577 46.6784 17.8327 44.8027 17.8327ZM38.6092 28.4236H36.8424V22.2354H38.6092V28.4236H38.6092ZM25.9897 27.2029H24.223V21.0149H25.9897V27.2029ZM44.8027 42.3963H33.9745C33.679 42.3963 33.4395 42.6357 33.4395 42.931C33.4395 43.2262 33.679 43.4656 33.9745 43.4656H35.5882V45.8482H34.2555C33.9599 45.8482 33.7205 46.0876 33.7205 46.3828C33.7205 46.6781 33.9599 46.9175 34.2555 46.9175H35.878L36.9698 48.1831H23.0254L24.1172 46.9175H25.7398C25.8817 46.9175 26.0178 46.8612 26.1181 46.7609C26.2184 46.6606 26.2748 46.5247 26.2748 46.3828C26.2748 46.241 26.2184 46.105 26.1181 46.0048C26.0178 45.9045 25.8817 45.8482 25.7398 45.8482H24.4071V43.4656H31.6944C31.9899 43.4656 32.2294 43.2262 32.2294 42.931C32.2294 42.6357 31.9899 42.3963 31.6944 42.3963H15.1926C14.0911 42.3963 13.1662 41.6288 12.9237 40.6009H47.0716C46.8291 41.6288 45.9042 42.3963 44.8027 42.3963Z" fill="#E6AA12"/>
<path d="M17.377 28.342C17.2351 28.342 17.099 28.3984 16.9987 28.4986C16.8983 28.5989 16.842 28.7349 16.842 28.8767V30.1675C16.842 30.7278 17.2981 31.1836 17.8588 31.1836H18.2604V34.031C18.2604 34.1728 18.3167 34.3088 18.4171 34.409C18.5174 34.5093 18.6535 34.5657 18.7954 34.5657C18.9373 34.5657 19.0734 34.5093 19.1737 34.409C19.274 34.3088 19.3304 34.1728 19.3304 34.031V31.1836H19.732C20.2927 31.1836 20.7488 30.7278 20.7488 30.1675V23.8731C20.7488 23.3127 20.2926 22.8568 19.732 22.8568H19.3304V22.0017C19.3304 21.8599 19.274 21.7239 19.1737 21.6236C19.0734 21.5233 18.9373 21.467 18.7954 21.467C18.6535 21.467 18.5174 21.5233 18.4171 21.6236C18.3167 21.7239 18.2604 21.8599 18.2604 22.0017V22.8568H17.8588C17.2981 22.8568 16.842 23.3127 16.842 23.8731V26.5982C16.842 26.74 16.8983 26.876 16.9987 26.9762C17.099 27.0765 17.2351 27.1328 17.377 27.1328C17.5189 27.1328 17.655 27.0765 17.7553 26.9762C17.8556 26.876 17.912 26.74 17.912 26.5982V23.9262H19.6789V30.1144H17.912V28.8768C17.912 28.8066 17.8982 28.737 17.8713 28.6721C17.8444 28.6073 17.805 28.5483 17.7553 28.4987C17.7057 28.449 17.6467 28.4096 17.5818 28.3827C17.5168 28.3559 17.4473 28.342 17.377 28.342ZM30.4782 27.2141H30.8798V30.0614C30.8798 30.3567 31.1193 30.5961 31.4149 30.5961C31.7104 30.5961 31.9499 30.3567 31.9499 30.0614V27.2141H32.3514C32.9121 27.2141 33.3683 26.7582 33.3683 26.1979V22.0042C33.3683 21.7089 33.1288 21.4695 32.8332 21.4695C32.5377 21.4695 32.2982 21.7089 32.2982 22.0042V26.1448H30.5314V16.4635H32.2982V19.7256C32.2982 20.0209 32.5377 20.2603 32.8332 20.2603C33.1288 20.2603 33.3683 20.0209 33.3683 19.7256V16.4103C33.3683 15.85 32.9121 15.3942 32.3514 15.3942H31.9499V13.267C31.9499 12.9717 31.7104 12.7324 31.4149 12.7324C31.1193 12.7324 30.8798 12.9717 30.8798 13.267V15.3942H30.4782C29.9175 15.3942 29.4614 15.85 29.4614 16.4103V26.1979C29.4614 26.7583 29.9175 27.2141 30.4782 27.2141ZM40.8121 27.3906C40.8455 27.4524 40.8907 27.5071 40.9451 27.5514C40.9996 27.5958 41.0623 27.629 41.1296 27.6491C41.1969 27.6693 41.2675 27.676 41.3374 27.6688C41.4073 27.6617 41.4752 27.6408 41.537 27.6075L44.0015 26.2796L43.8242 26.7445C43.7992 26.8101 43.7873 26.88 43.7894 26.9502C43.7914 27.0204 43.8072 27.0895 43.8359 27.1536C43.8647 27.2177 43.9058 27.2754 43.9569 27.3237C44.008 27.3719 44.068 27.4095 44.1337 27.4345C44.1994 27.4595 44.2693 27.4714 44.3395 27.4693C44.4098 27.4673 44.4789 27.4515 44.543 27.4228C44.6072 27.394 44.665 27.353 44.7132 27.3019C44.7615 27.2509 44.7992 27.1908 44.8242 27.1252L45.4265 25.545C45.4516 25.4794 45.4634 25.4095 45.4614 25.3393C45.4594 25.2691 45.4435 25.2 45.4148 25.1359C45.386 25.0719 45.3449 25.0141 45.2939 24.9659C45.2428 24.9177 45.1827 24.88 45.117 24.855L43.4387 24.216C43.3066 24.1678 43.1607 24.1734 43.0327 24.2318C42.9048 24.2901 42.8049 24.3965 42.7548 24.5279C42.7048 24.6593 42.7085 24.8051 42.7652 24.9337C42.8218 25.0624 42.927 25.1636 43.0577 25.2154L43.4469 25.3635L41.0291 26.6662C40.9043 26.7335 40.8112 26.8477 40.7705 26.9835C40.7298 27.1194 40.7448 27.2658 40.8121 27.3906ZM14.9533 37.8375C14.9945 37.9338 15.0631 38.0159 15.1506 38.0736C15.238 38.1313 15.3405 38.162 15.4453 38.162C15.5177 38.1619 15.5892 38.1472 15.6556 38.1187L22.5594 35.166L23.1868 36.8087C23.214 36.8797 23.256 36.9442 23.31 36.9977C23.3641 37.0513 23.429 37.0927 23.5003 37.1192C23.5716 37.1457 23.6478 37.1567 23.7237 37.1514C23.7997 37.1461 23.8736 37.1247 23.9406 37.0886L35.3461 30.9432C35.4081 30.9099 35.4629 30.8648 35.5074 30.8103C35.5519 30.7559 35.5852 30.6932 35.6054 30.6259C35.6256 30.5586 35.6324 30.4879 35.6253 30.418C35.6182 30.3481 35.5973 30.2802 35.5639 30.2184C35.5305 30.1565 35.4853 30.1018 35.4307 30.0574C35.3762 30.0131 35.3134 29.9799 35.246 29.9598C35.1786 29.9397 35.1079 29.9331 35.038 29.9403C34.968 29.9475 34.9001 29.9685 34.8383 30.0019L23.9692 35.8583L23.3606 34.2648C23.3349 34.1975 23.2959 34.1361 23.2459 34.0843C23.1959 34.0325 23.1359 33.9912 23.0696 33.9631C23.0032 33.935 22.9319 33.9206 22.8598 33.9208C22.7878 33.9209 22.7165 33.9356 22.6503 33.9639L15.2346 37.1356C15.1042 37.1914 15.0013 37.2967 14.9485 37.4283C14.8958 37.56 14.8975 37.7072 14.9533 37.8375Z" fill="#E6AA12"/>
</g>
<defs>
<clipPath id="clip0_437_1085">
<rect width="36.5441" height="36.5199" fill="white" transform="translate(11.7285 12.7325)"/>
</clipPath>
</defs>
</svg>

<svg width="60" height="61" fill="none" xmlns="http://www.w3.org/2000/svg"><rect y=".994" width="60" height="59.997" rx="13.047" fill="#E6AA12" fill-opacity=".1"/><g clip-path="url(#clip0_437_1085)" fill="#E6AA12"><path d="M44.803 17.833H38.26v-2.146a.535.535 0 0 0-1.07 0v2.146h-2.216a.535.535 0 1 0 0 1.069h2.216v2.264h-.402c-.56 0-1.017.456-1.017 1.016v6.295c0 .56.456 1.016 1.017 1.016h.402v4.241a.535.535 0 0 0 1.07 0v-4.241h.401c.561 0 1.017-.456 1.017-1.016v-6.295c0-.56-.456-1.016-1.017-1.016h-.401v-2.264h6.542a2.334 2.334 0 0 1 2.331 2.33v18.3H12.861v-18.3a2.333 2.333 0 0 1 2.332-2.33h9.378v1.044h-.401c-.56 0-1.017.455-1.017 1.016v6.294c0 .56.456 1.016 1.017 1.016h.401v4.725a.534.534 0 1 0 1.07 0v-4.725h.402c.56 0 1.017-.456 1.017-1.016v-6.294c0-.56-.456-1.016-1.017-1.016h-.402v-1.044h2.217a.535.535 0 1 0 0-1.07H25.64v-.263a.534.534 0 0 0-1.07 0v.264h-9.378a3.404 3.404 0 0 0-3.402 3.4v18.833c0 1.875 1.526 3.4 3.402 3.4h8.144v2.718l-1.724 2h-.685a.535.535 0 1 0 0 1.068h18.09a.535.535 0 1 0 0-1.069h-.635l-1.725-1.999v-2.718h8.145a3.404 3.404 0 0 0 3.401-3.4V21.232c0-1.874-1.526-3.4-3.401-3.4zm-6.194 10.59h-1.767v-6.188h1.767v6.189zm-12.62-1.22h-1.766v-6.188h1.767v6.188zm18.814 15.193H33.975a.535.535 0 1 0 0 1.07h1.613v2.382h-1.333a.535.535 0 1 0 0 1.07h1.623l1.092 1.265H23.025l1.092-1.266h1.623a.535.535 0 1 0 0-1.069h-1.333v-2.382h7.287a.535.535 0 1 0 0-1.07H15.193a2.335 2.335 0 0 1-2.27-1.795h34.149a2.335 2.335 0 0 1-2.27 1.795z"/><path d="M17.377 28.342a.535.535 0 0 0-.535.535v1.29c0 .56.456 1.017 1.017 1.017h.401v2.847a.534.534 0 1 0 1.07 0v-2.847h.402c.56 0 1.017-.456 1.017-1.017v-6.294c0-.56-.456-1.016-1.017-1.016h-.402v-.855a.535.535 0 0 0-1.07 0v.855h-.401c-.56 0-1.017.456-1.017 1.016v2.725a.534.534 0 1 0 1.07 0v-2.672h1.767v6.188h-1.767v-1.237a.535.535 0 0 0-.535-.535zm13.101-1.128h.402v2.847a.535.535 0 0 0 1.07 0v-2.847h.401c.561 0 1.017-.456 1.017-1.016v-4.194a.535.535 0 0 0-1.07 0v4.14h-1.767v-9.68h1.767v3.262a.535.535 0 0 0 1.07 0V16.41c0-.56-.456-1.016-1.017-1.016h-.401v-2.127a.535.535 0 0 0-1.07 0v2.127h-.402c-.56 0-1.017.456-1.017 1.016v9.788c0 .56.457 1.016 1.017 1.016zm10.334.177a.536.536 0 0 0 .725.217l2.465-1.328-.178.464a.533.533 0 0 0 .516.725.535.535 0 0 0 .484-.344l.602-1.58a.533.533 0 0 0-.309-.69l-1.678-.639a.536.536 0 0 0-.381 1l.389.147-2.418 1.303a.535.535 0 0 0-.217.725zM14.953 37.838a.535.535 0 0 0 .703.28l6.903-2.952.628 1.643a.536.536 0 0 0 .754.28l11.405-6.146a.535.535 0 1 0-.508-.941L23.97 35.858l-.608-1.593a.534.534 0 0 0-.71-.301l-7.416 3.172a.535.535 0 0 0-.282.701z"/></g><defs><clipPath id="clip0_437_1085"><path fill="#fff" transform="translate(11.729 12.732)" d="M0 0h36.544v36.52H0z"/></clipPath></defs></svg>
